flaticon/online-marketing/rocket.svg

<svg xmlns="http://www.w3.org/2000/svg" width="32" height="32" viewBox="0 0 24 24">
    <path d="M 12.046875 9.339844 C 9.855469 9.339844 8.070312 11.125 8.070312 13.316406 C 8.070312 15.511719 9.855469 17.296875 12.046875 17.296875 C 14.242188 17.296875 16.023438 15.511719 16.023438 13.316406 C 16.023438 11.125 14.242188 9.339844 12.046875 9.339844 Z M 12.046875 16.472656 C 10.308594 16.472656 8.894531 15.058594 8.894531 13.316406 C 8.894531 11.578125 10.308594 10.164062 12.046875 10.164062 C 13.789062 10.164062 15.203125 11.578125 15.203125 13.316406 C 15.203125 15.058594 13.789062 16.472656 12.046875 16.472656 Z M 12.046875 16.472656"/>
    <path d="M 12.046875 10.863281 C 10.695312 10.863281 9.59375 11.964844 9.59375 13.316406 C 9.59375 14.671875 10.695312 15.769531 12.046875 15.769531 C 13.402344 15.769531 14.5 14.671875 14.5 13.316406 C 14.5 11.964844 13.402344 10.863281 12.046875 10.863281 Z M 12.046875 11.6875 C 12.167969 11.6875 12.28125 11.699219 12.394531 11.726562 L 10.820312 14.390625 C 10.570312 14.101562 10.417969 13.726562 10.417969 13.316406 C 10.417969 12.417969 11.148438 11.6875 12.046875 11.6875 Z M 12.046875 14.949219 C 11.855469 14.949219 11.671875 14.914062 11.503906 14.855469 L 13.128906 12.097656 C 13.464844 12.398438 13.679688 12.832031 13.679688 13.316406 C 13.679688 14.214844 12.945312 14.949219 12.046875 14.949219 Z M 12.046875 14.949219"/>
    <path d="M 19.574219 15.898438 C 18.867188 14.671875 18.164062 13.769531 17.9375 13.484375 C 17.78125 12.5 17.570312 11.515625 17.304688 10.527344 C 16.324219 6.867188 14.652344 3.382812 12.332031 0.171875 C 12.257812 0.0625 12.132812 0 12 0 C 11.867188 0 11.742188 0.0625 11.667969 0.171875 C 9.347656 3.382812 7.675781 6.867188 6.695312 10.527344 C 6.429688 11.515625 6.21875 12.5 6.0625 13.484375 C 5.835938 13.769531 5.132812 14.671875 4.425781 15.898438 C 3.277344 17.882812 2.695312 19.671875 2.695312 21.21875 C 2.695312 21.445312 2.878906 21.628906 3.105469 21.628906 C 4.546875 21.628906 6.007812 21.484375 6.328125 21.453125 C 6.628906 21.511719 6.929688 21.566406 7.230469 21.613281 L 7.042969 23.292969 C 7.03125 23.402344 7.0625 23.511719 7.132812 23.597656 C 7.199219 23.679688 7.300781 23.734375 7.40625 23.75 C 8.929688 23.917969 10.460938 24 11.992188 24 C 13.527344 24 15.058594 23.914062 16.578125 23.75 C 16.6875 23.734375 16.785156 23.679688 16.855469 23.597656 C 16.921875 23.511719 16.953125 23.402344 16.941406 23.292969 L 16.757812 21.617188 C 17.0625 21.566406 17.367188 21.511719 17.671875 21.453125 C 17.992188 21.484375 19.453125 21.628906 20.894531 21.628906 C 21.121094 21.628906 21.304688 21.445312 21.304688 21.21875 C 21.304688 19.671875 20.722656 17.882812 19.574219 15.898438 Z M 12 1.125 C 12.949219 2.484375 13.777344 3.898438 14.484375 5.347656 C 13.710938 5.710938 12.859375 5.902344 12 5.902344 C 11.140625 5.902344 10.289062 5.710938 9.515625 5.347656 C 10.222656 3.898438 11.050781 2.484375 12 1.125 Z M 5.84375 15.183594 C 5.667969 17.03125 5.679688 18.863281 5.886719 20.667969 C 5.378906 20.714844 4.46875 20.785156 3.535156 20.800781 C 3.6875 18.730469 4.945312 16.523438 5.84375 15.183594 Z M 16.078125 22.972656 C 13.367188 23.246094 10.621094 23.246094 7.90625 22.972656 L 8.042969 21.734375 C 9.359375 21.914062 10.679688 22.003906 12 22.003906 C 13.316406 22.003906 14.632812 21.914062 15.941406 21.738281 Z M 17.285156 20.691406 C 13.777344 21.34375 10.222656 21.34375 6.714844 20.691406 C 6.332031 17.445312 6.589844 14.097656 7.488281 10.742188 C 7.914062 9.15625 8.472656 7.601562 9.160156 6.09375 C 10.046875 6.507812 11.015625 6.722656 12 6.722656 C 12.980469 6.722656 13.953125 6.507812 14.835938 6.09375 C 15.527344 7.601562 16.085938 9.15625 16.511719 10.742188 C 17.410156 14.097656 17.667969 17.445312 17.285156 20.691406 Z M 18.113281 20.667969 C 18.320312 18.863281 18.332031 17.03125 18.15625 15.179688 C 19.054688 16.519531 20.3125 18.726562 20.464844 20.800781 C 19.53125 20.785156 18.621094 20.714844 18.113281 20.667969 Z M 18.113281 20.667969"/>
</svg>

<svg xmlns="http://www.w3.org/2000/svg" width="32" height="32" viewBox="0 0 24 24">
    <path d="M12.047 9.34a3.983 3.983 0 0 0-3.977 3.976 3.984 3.984 0 0 0 3.977 3.98 3.981 3.981 0 0 0 3.976-3.98 3.98 3.98 0 0 0-3.976-3.976zm0 7.133a3.157 3.157 0 0 1-3.152-3.157 3.156 3.156 0 0 1 3.152-3.152 3.157 3.157 0 0 1 3.156 3.152 3.157 3.157 0 0 1-3.156 3.157zm0 0"/>
    <path d="M12.047 10.863a2.457 2.457 0 0 0-2.453 2.453 2.452 2.452 0 1 0 2.453-2.453zm0 .825c.121 0 .234.011.348.039L10.82 14.39a1.63 1.63 0 0 1 1.227-2.703zm0 3.261a1.65 1.65 0 0 1-.543-.094l1.625-2.757c.336.3.55.734.55 1.218 0 .899-.734 1.633-1.632 1.633zm0 0"/>
    <path d="M19.574 15.898a20.159 20.159 0 0 0-1.637-2.414 28.738 28.738 0 0 0-.632-2.957c-.98-3.66-2.653-7.144-4.973-10.355A.399.399 0 0 0 12 0a.399.399 0 0 0-.332.172c-2.32 3.21-3.992 6.695-4.973 10.355a28.738 28.738 0 0 0-.633 2.957c-.226.286-.93 1.188-1.636 2.414-1.149 1.985-1.73 3.774-1.73 5.32 0 .227.183.41.41.41 1.44 0 2.902-.144 3.222-.175.3.059.602.113.902.16l-.187 1.68a.41.41 0 0 0 .09.305.438.438 0 0 0 .273.152c1.524.168 3.055.25 4.586.25a42.73 42.73 0 0 0 4.586-.25.448.448 0 0 0 .277-.152.425.425 0 0 0 .086-.305l-.183-1.676c.305-.05.61-.105.914-.164.32.031 1.781.176 3.223.176a.41.41 0 0 0 .41-.41c0-1.547-.582-3.336-1.73-5.32zM12 1.125a31.51 31.51 0 0 1 2.484 4.223A5.856 5.856 0 0 1 12 5.902c-.86 0-1.71-.191-2.484-.554A31.51 31.51 0 0 1 12 1.125zM5.844 15.184a26.241 26.241 0 0 0 .043 5.484c-.508.047-1.418.117-2.352.133.152-2.07 1.41-4.278 2.309-5.617zm10.234 7.789c-2.71.273-5.457.273-8.172 0l.137-1.239a29.24 29.24 0 0 0 7.898.004zm1.207-2.282a28.79 28.79 0 0 1-10.57 0c-.383-3.246-.125-6.593.773-9.949.426-1.586.985-3.14 1.672-4.648a6.71 6.71 0 0 0 5.676 0 29.5 29.5 0 0 1 1.676 4.648c.898 3.356 1.156 6.703.773 9.95zm.828-.023c.207-1.805.219-3.637.043-5.488.899 1.34 2.157 3.547 2.309 5.62a32.896 32.896 0 0 1-2.352-.132zm0 0"/>
</svg>
